balaji-portofolio/src/assets/sun.svg

<?xml version="1.0" encoding="iso-8859-1"?>
<!-- Generator: Adobe Illustrator 19.0.0, SVG Export Plug-In . SVG Version: 6.00 Build 0)  -->
<svg version="1.1" id="Layer_1" xmlns="http://www.w3.org/2000/svg" xmlns:xlink="http://www.w3.org/1999/xlink" x="0px" y="0px"
	 viewBox="0 0 512 512" style="enable-background:new 0 0 512 512;" xml:space="preserve">
<g>
	<g>
		<path d="M50.087,239.304H16.696C7.475,239.304,0,246.78,0,256s7.475,16.696,16.696,16.696h33.391
			c9.22,0,16.696-7.475,16.696-16.696S59.307,239.304,50.087,239.304z"/>
	</g>
</g>
<g>
	<g>
		<path d="M495.304,239.304h-33.391c-9.22,0-16.696,7.475-16.696,16.696s7.475,16.696,16.696,16.696h33.391
			c9.22,0,16.696-7.475,16.696-16.696S504.525,239.304,495.304,239.304z"/>
	</g>
</g>
<g>
	<g>
		<path d="M256,445.217c-9.22,0-16.696,7.475-16.696,16.696v33.391c0,9.22,7.475,16.696,16.696,16.696s16.696-7.475,16.696-16.696
			v-33.391C272.696,452.693,265.22,445.217,256,445.217z"/>
	</g>
</g>
<g>
	<g>
		<path d="M256,0c-9.22,0-16.696,7.475-16.696,16.696v33.391c0,9.22,7.475,16.696,16.696,16.696s16.696-7.475,16.696-16.696V16.696
			C272.696,7.475,265.22,0,256,0z"/>
	</g>
</g>
<g>
	<g>
		<path d="M390.111,454.895l-16.696-28.917c-4.61-7.985-14.821-10.722-22.806-6.111c-7.985,4.61-10.721,14.821-6.111,22.806
			l16.696,28.917c4.612,7.989,14.826,10.719,22.806,6.111C391.985,473.091,394.721,462.88,390.111,454.895z"/>
	</g>
</g>
<g>
	<g>
		<path d="M167.502,69.326l-16.696-28.917c-4.61-7.985-14.821-10.722-22.806-6.111c-7.985,4.61-10.721,14.821-6.111,22.806
			l16.696,28.917c4.612,7.989,14.826,10.72,22.806,6.111C169.376,87.522,172.112,77.311,167.502,69.326z"/>
	</g>
</g>
<g>
	<g>
		<path d="M471.591,361.194l-28.917-16.696c-7.986-4.612-18.196-1.875-22.806,6.111c-4.61,7.985-1.874,18.196,6.111,22.806
			l28.917,16.696c7.981,4.609,18.194,1.878,22.806-6.111C482.312,376.015,479.576,365.804,471.591,361.194z"/>
	</g>
</g>
<g>
	<g>
		<path d="M86.022,138.585l-28.917-16.696c-7.986-4.612-18.197-1.874-22.806,6.111c-4.61,7.985-1.874,18.196,6.111,22.806
			l28.917,16.696c7.981,4.609,18.194,1.878,22.806-6.111C96.742,153.406,94.007,143.195,86.022,138.585z"/>
	</g>
</g>
<g>
	<g>
		<path d="M477.702,128c-4.61-7.985-14.82-10.722-22.806-6.111l-28.917,16.696c-7.985,4.61-10.721,14.821-6.111,22.806
			c4.612,7.989,14.826,10.719,22.806,6.111l28.917-16.696C479.576,146.196,482.312,135.985,477.702,128z"/>
	</g>
</g>
<g>
	<g>
		<path d="M92.132,350.609c-4.609-7.985-14.821-10.721-22.806-6.111l-28.917,16.696c-7.985,4.61-10.721,14.821-6.111,22.806
			c4.612,7.989,14.826,10.719,22.806,6.111l28.917-16.696C94.007,368.805,96.742,358.594,92.132,350.609z"/>
	</g>
</g>
<g>
	<g>
		<path d="M384,34.298c-7.986-4.612-18.196-1.874-22.806,6.111l-16.696,28.917c-4.61,7.985-1.874,18.196,6.111,22.806
			c7.981,4.609,18.194,1.879,22.806-6.111l16.696-28.917C394.721,49.12,391.985,38.909,384,34.298z"/>
	</g>
</g>
<g>
	<g>
		<path d="M161.391,419.868c-7.985-4.612-18.197-1.875-22.806,6.111l-16.696,28.917c-4.61,7.985-1.874,18.196,6.111,22.806
			c7.981,4.609,18.194,1.878,22.806-6.111l16.696-28.917C172.112,434.689,169.376,424.478,161.391,419.868z"/>
	</g>
</g>
<g>
	<g>
		<path d="M256,100.174c-85.922,0-155.826,69.904-155.826,155.826S170.078,411.826,256,411.826S411.826,341.922,411.826,256
			S341.923,100.174,256,100.174z M256,378.435c-67.51,0-122.435-54.924-122.435-122.435S188.49,133.565,256,133.565
			S378.435,188.49,378.435,256S323.511,378.435,256,378.435z"/>
	</g>
</g>
<g>
	<g>
		<path d="M256,166.957c-49.099,0-89.043,39.945-89.043,89.043c0,9.22,7.475,16.696,16.696,16.696
			c9.22,0,16.696-7.475,16.696-16.696c0-30.687,24.966-55.652,55.652-55.652c9.22,0,16.696-7.475,16.696-16.696
			C272.696,174.432,265.22,166.957,256,166.957z"/>
	</g>
</g>
<g>
</g>
<g>
</g>
<g>
</g>
<g>
</g>
<g>
</g>
<g>
</g>
<g>
</g>
<g>
</g>
<g>
</g>
<g>
</g>
<g>
</g>
<g>
</g>
<g>
</g>
<g>
</g>
<g>
</g>
</svg>

<svg width="512" height="512" viewBox="0 0 512 512" fill="none" xmlns="http://www.w3.org/2000/svg">
<path d="M50.087 239.304H16.696C7.475 239.304 0 246.78 0 256C0 265.22 7.475 272.696 16.696 272.696H50.087C59.307 272.696 66.783 265.221 66.783 256C66.783 246.779 59.307 239.304 50.087 239.304Z" fill="white"/>
<path d="M495.304 239.304H461.913C452.693 239.304 445.217 246.779 445.217 256C445.217 265.221 452.692 272.696 461.913 272.696H495.304C504.524 272.696 512 265.221 512 256C512 246.779 504.525 239.304 495.304 239.304Z" fill="white"/>
<path d="M256 445.217C246.78 445.217 239.304 452.692 239.304 461.913V495.304C239.304 504.524 246.779 512 256 512C265.221 512 272.696 504.525 272.696 495.304V461.913C272.696 452.693 265.22 445.217 256 445.217Z" fill="white"/>
<path d="M256 0C246.78 0 239.304 7.475 239.304 16.696V50.087C239.304 59.307 246.779 66.783 256 66.783C265.221 66.783 272.696 59.308 272.696 50.087V16.696C272.696 7.475 265.22 0 256 0Z" fill="white"/>
<path d="M390.111 454.895L373.415 425.978C368.805 417.993 358.594 415.256 350.609 419.867C342.624 424.477 339.888 434.688 344.498 442.673L361.194 471.59C365.806 479.579 376.02 482.309 384 477.701C391.985 473.091 394.721 462.88 390.111 454.895Z" fill="white"/>
<path d="M167.502 69.326L150.806 40.409C146.196 32.424 135.985 29.687 128 34.298C120.015 38.908 117.279 49.119 121.889 57.104L138.585 86.021C143.197 94.01 153.411 96.741 161.391 92.132C169.376 87.522 172.112 77.311 167.502 69.326Z" fill="white"/>
<path d="M471.591 361.194L442.674 344.498C434.688 339.886 424.478 342.623 419.868 350.609C415.258 358.594 417.994 368.805 425.979 373.415L454.896 390.111C462.877 394.72 473.09 391.989 477.702 384C482.312 376.015 479.576 365.804 471.591 361.194Z" fill="white"/>
<path d="M86.022 138.585L57.105 121.889C49.119 117.277 38.908 120.015 34.299 128C29.689 135.985 32.425 146.196 40.41 150.806L69.327 167.502C77.308 172.111 87.521 169.38 92.133 161.391C96.742 153.406 94.007 143.195 86.022 138.585Z" fill="white"/>
<path d="M477.702 128C473.092 120.015 462.882 117.278 454.896 121.889L425.979 138.585C417.994 143.195 415.258 153.406 419.868 161.391C424.48 169.38 434.694 172.11 442.674 167.502L471.591 150.806C479.576 146.196 482.312 135.985 477.702 128Z" fill="white"/>
<path d="M92.132 350.609C87.523 342.624 77.311 339.888 69.326 344.498L40.409 361.194C32.424 365.804 29.688 376.015 34.298 384C38.91 391.989 49.124 394.719 57.104 390.111L86.021 373.415C94.007 368.805 96.742 358.594 92.132 350.609Z" fill="white"/>
<path d="M384 34.298C376.014 29.686 365.804 32.424 361.194 40.409L344.498 69.326C339.888 77.311 342.624 87.522 350.609 92.132C358.59 96.741 368.803 94.011 373.415 86.021L390.111 57.104C394.721 49.12 391.985 38.909 384 34.298Z" fill="white"/>
<path d="M161.391 419.868C153.406 415.256 143.194 417.993 138.585 425.979L121.889 454.896C117.279 462.881 120.015 473.092 128 477.702C135.981 482.311 146.194 479.58 150.806 471.591L167.502 442.674C172.112 434.689 169.376 424.478 161.391 419.868Z" fill="white"/>
<path d="M256 100.174C170.078 100.174 100.174 170.078 100.174 256C100.174 341.922 170.078 411.826 256 411.826C341.922 411.826 411.826 341.922 411.826 256C411.826 170.078 341.923 100.174 256 100.174ZM256 378.435C188.49 378.435 133.565 323.511 133.565 256C133.565 188.489 188.49 133.565 256 133.565C323.51 133.565 378.435 188.49 378.435 256C378.435 323.51 323.511 378.435 256 378.435Z" fill="white"/>
<path d="M256 166.957C206.901 166.957 166.957 206.902 166.957 256C166.957 265.22 174.432 272.696 183.653 272.696C192.873 272.696 200.349 265.221 200.349 256C200.349 225.313 225.315 200.348 256.001 200.348C265.221 200.348 272.697 192.873 272.697 183.652C272.696 174.432 265.22 166.957 256 166.957Z" fill="white"/>
</svg>
